Numix/16/status/indicator-keyboard-Or.svg

<?xml version="1.0" encoding="UTF-8" standalone="no"?>
<svg
   xmlns:dc="http://purl.org/dc/elements/1.1/"
   xmlns:cc="http://creativecommons.org/ns#"
   xmlns:rdf="http://www.w3.org/1999/02/22-rdf-syntax-ns#"
   xmlns:svg="http://www.w3.org/2000/svg"
   xmlns="http://www.w3.org/2000/svg"
   xmlns:sodipodi="http://sodipodi.sourceforge.net/DTD/sodipodi-0.dtd"
   xmlns:inkscape="http://www.inkscape.org/namespaces/inkscape"
   viewBox="0 0 16 16"
   id="svg2"
   version="1.1"
   inkscape:version="0.91 r13725"
   sodipodi:docname="indicator-keyboard-Or.svg">
  <metadata
     id="metadata13">
    <rdf:RDF>
      <cc:Work
         rdf:about="">
        <dc:format>image/svg+xml</dc:format>
        <dc:type
           rdf:resource="http://purl.org/dc/dcmitype/StillImage" />
      </cc:Work>
    </rdf:RDF>
  </metadata>
  <defs
     id="defs11" />
  <sodipodi:namedview
     pagecolor="#ffffff"
     bordercolor="#666666"
     borderopacity="1"
     objecttolerance="10"
     gridtolerance="10"
     guidetolerance="10"
     inkscape:pageopacity="0"
     inkscape:pageshadow="2"
     inkscape:window-width="640"
     inkscape:window-height="480"
     id="namedview9"
     showgrid="false"
     inkscape:zoom="14.75"
     inkscape:cx="8"
     inkscape:cy="8"
     inkscape:window-x="75"
     inkscape:window-y="34"
     inkscape:window-maximized="0"
     inkscape:current-layer="svg2" />
  <path
     style="fill:#ececec;fill-opacity:1"
     d="M 1.5996094 0 C 0.71320937 2.9605947e-16 0 0.71320937 0 1.5996094 L 0 14.400391 C 2.9605947e-16 15.286791 0.71320937 16 1.5996094 16 L 14.400391 16 C 15.286791 16 16 15.286791 16 14.400391 L 16 1.5996094 C 16 0.71320937 15.286791 0 14.400391 0 L 1.5996094 0 z M 6.09375 4.7460938 C 6.48975 4.7460938 6.86475 4.815125 7.21875 4.953125 C 7.57275 5.091125 7.8824844 5.2982187 8.1464844 5.5742188 C 8.4164844 5.8442188 8.6291563 6.1837969 8.7851562 6.5917969 C 8.9411562 6.9937969 9.0195312 7.4620938 9.0195312 7.9960938 C 9.0195312 8.5300937 8.9411563 9.0002031 8.7851562 9.4082031 C 8.6291562 9.8162033 8.4164844 10.157594 8.1464844 10.433594 C 7.8824844 10.703594 7.57275 10.908875 7.21875 11.046875 C 6.86475 11.184875 6.48975 11.253906 6.09375 11.253906 C 5.69775 11.253906 5.32275 11.184875 4.96875 11.046875 C 4.61475 10.908875 4.3032031 10.703594 4.0332031 10.433594 C 3.7692031 10.157594 3.5602969 9.8162033 3.4042969 9.4082031 C 3.2482969 9.0002031 3.1699219 8.5300937 3.1699219 7.9960938 C 3.1699219 7.4620938 3.2482969 6.9937969 3.4042969 6.5917969 C 3.5602969 6.1837969 3.7692031 5.8442187 4.0332031 5.5742188 C 4.3032031 5.2982188 4.61475 5.091125 4.96875 4.953125 C 5.32275 4.815125 5.69775 4.7460937 6.09375 4.7460938 z M 6.09375 5.2949219 C 5.74575 5.2949219 5.4323906 5.358375 5.1503906 5.484375 C 4.8743906 5.604375 4.6374531 5.781625 4.4394531 6.015625 C 4.2414531 6.249625 4.0884687 6.5350938 3.9804688 6.8710938 C 3.8724688 7.2010937 3.8183594 7.5760938 3.8183594 7.9960938 C 3.8183594 8.4160938 3.8724688 8.7929063 3.9804688 9.1289062 C 4.0884688 9.4589063 4.2414531 9.7406094 4.4394531 9.9746094 C 4.6374531 10.20861 4.8743906 10.389625 5.1503906 10.515625 C 5.4323906 10.641625 5.74575 10.705078 6.09375 10.705078 C 6.44175 10.705078 6.75525 10.641625 7.03125 10.515625 C 7.31325 10.389625 7.552 10.20861 7.75 9.9746094 C 7.948 9.7406094 8.1009844 9.4589063 8.2089844 9.1289062 C 8.3169844 8.7929062 8.3710937 8.4160938 8.3710938 7.9960938 C 8.3710938 7.5760937 8.3169844 7.2010938 8.2089844 6.8710938 C 8.1009844 6.5350938 7.948 6.249625 7.75 6.015625 C 7.552 5.781625 7.31325 5.604375 7.03125 5.484375 C 6.75525 5.358375 6.44175 5.2949219 6.09375 5.2949219 z M 11.929688 6.375 C 12.121687 6.375 12.302703 6.3899219 12.470703 6.4199219 C 12.644703 6.4499219 12.764078 6.4797656 12.830078 6.5097656 L 12.712891 7.0136719 C 12.664891 6.9896719 12.566016 6.9673594 12.416016 6.9433594 C 12.272016 6.9133594 12.079844 6.8984375 11.839844 6.8984375 C 11.587844 6.8984375 11.384516 6.9151719 11.228516 6.9511719 C 11.078516 6.9871719 10.979641 7.0170156 10.931641 7.0410156 L 10.931641 11.119141 L 10.345703 11.119141 L 10.345703 6.6816406 C 10.495703 6.6156406 10.702797 6.550375 10.966797 6.484375 C 11.230797 6.412375 11.551688 6.375 11.929688 6.375 z "
     id="path4" />
</svg>

<svg xmlns="http://www.w3.org/2000/svg" viewBox="0 0 16 16">
 <path d="m 1.6 0 c -0.886 0 -1.6 0.713 -1.6 1.6 l 0 12.801 c 0 0.886 0.713 1.6 1.6 1.6 l 12.801 0 c 0.886 0 1.6 -0.713 1.6 -1.6 l 0 -12.801 c 0 -0.886 -0.713 -1.6 -1.6 -1.6 l -12.801 0 z m 4.494 4.746 c 0.396 0 0.771 0.069 1.125 0.207 c 0.354 0.138 0.664 0.345 0.928 0.621 c 0.27 0.27 0.483 0.61 0.639 1.018 c 0.156 0.402 0.234 0.87 0.234 1.404 c 0 0.534 -0.078 1 -0.234 1.412 c -0.156 0.408 -0.369 0.749 -0.639 1.025 c -0.264 0.27 -0.574 0.475 -0.928 0.613 c -0.354 0.138 -0.729 0.207 -1.125 0.207 c -0.396 0 -0.771 -0.069 -1.125 -0.207 c -0.354 -0.138 -0.666 -0.343 -0.936 -0.613 c -0.264 -0.276 -0.473 -0.617 -0.629 -1.025 c -0.156 -0.408 -0.234 -0.878 -0.234 -1.412 c 0 -0.534 0.078 -1 0.234 -1.404 c 0.156 -0.408 0.365 -0.748 0.629 -1.018 c 0.27 -0.276 0.582 -0.483 0.936 -0.621 c 0.354 -0.138 0.729 -0.207 1.125 -0.207 z m 0 0.549 c -0.348 0 -0.661 0.063 -0.943 0.189 c -0.276 0.12 -0.513 0.297 -0.711 0.531 c -0.198 0.234 -0.351 0.519 -0.459 0.855 c -0.108 0.33 -0.162 0.705 -0.162 1.125 c 0 0.42 0.054 0.797 0.162 1.133 c 0.108 0.33 0.261 0.612 0.459 0.846 c 0.198 0.234 0.435 0.415 0.711 0.541 c 0.282 0.126 0.595 0.189 0.943 0.189 c 0.348 0 0.662 -0.063 0.938 -0.189 c 0.282 -0.126 0.521 -0.307 0.719 -0.541 c 0.198 -0.234 0.351 -0.516 0.459 -0.846 c 0.108 -0.336 0.162 -0.713 0.162 -1.133 c 0 -0.42 -0.054 -0.795 -0.162 -1.125 c -0.108 -0.336 -0.261 -0.621 -0.459 -0.855 c -0.198 -0.234 -0.437 -0.411 -0.719 -0.531 c -0.276 -0.126 -0.59 -0.189 -0.938 -0.189 z m 5.836 1.08 c 0.192 0 0.373 0.015 0.541 0.045 c 0.174 0.03 0.293 0.06 0.359 0.09 l -0.117 0.504 c -0.048 -0.024 -0.147 -0.046 -0.297 -0.07 c -0.144 -0.03 -0.336 -0.045 -0.576 -0.045 c -0.252 0 -0.455 0.017 -0.611 0.053 c -0.15 0.036 -0.249 0.066 -0.297 0.09 l 0 4.078 l -0.586 0 l 0 -4.438 c 0.15 -0.066 0.357 -0.131 0.621 -0.197 c 0.264 -0.072 0.585 -0.109 0.963 -0.109 z" style="fill:#ececec;fill-opacity:1"/>
</svg>
